X: 12279
T: Fairy Dance, The
R: reel
M: 4/4
K: Dmajor
M:2/4
|:ff/d/ ff/d/|ff/d/ e/c/G/e/|f[f/d/]d/ g/f/e/d/|c/A/B/c/ dd:|
|:aa/f/ bb/a/|gg/e/ aa/g/|ff/d/ g/f/e/d/|c/A/B/c/ d/e/f/g/|
a/^g/a/f/ b/a/=g/f/|g/f/g/e/ a/g/f/e/|f/e/f/d/ g/f/e/d/|c/A/B/c/ dd:|

